X:260
T:Rory O’More TS.260
M:6/8
L:1/8
Q:3/8=110
S:Thomas Sands’ MS,1810,Lincolnshire
R:jig
C:Samuel Lover,1837
C:In different hand C
O:England;Lincolnshire
Z:vmp.Ruairidh Greig, 2011
K:A
f|eAA cAA|eAA A2f|eAA cAA|GBBB2c/d/|
eAA cAA|eAAHf2(e/d/)|cde efg|aAAA2H:|
|:g|agf fcc|dcBA2(A/G/)|FGA ABc|dfeHe2f/g/|
agf fcc|dcBA2A/G/|FGA ABc|dfeHe2″Da capo”f|]

